X:1
T:Collie Can, or Hells Lum
T:Collie Can, or Hells Lum
T:Robert Petrie
C:Robert Petrie
L:1/8
M:2/2
K:C
V:1 treble 
V:1
 (E<A)A>G A>Bc>d | TB>AG>d BGdB | (E>A)A>G A>Bc>d | B>GE>G A2 A2 :| e<cc>f e>cg>e | d>cB>A G>dB>G | %6
 c<cc>f e>ce>g | a>ga>B A2 A>B | c<cc>f e>cg>e | (d/e/d/c/) (B/c/B/A/) G>dB>G | A>EF>D E>CB,>D | %11
 E>DG>B, A,2 A,2 || %12

